X:26
%%score 1 2
%%pagewidth 850pt
T: We be three poor mariners
M: C
L: 1/4
K:Eb
V:1 clef-treble
V:2 clef-bass octave=-1
V:1
[G,E]>F [EG][EA]|[DB]>[Ec] [Fd][DFB]|(c/d/)e dc &[EA][EA] [EA][EA]|[EB]3 [EB] & AG/F/ Gx|
w:We be three poor ma-ri-ners, New-ly* come from the seas; We
V:2
E2 DC|B,3B,|A,CB,A,|E3G,|
V:1
AGFD & CB,A,2|E>F (G/A/)B & G,3E|AGF[B,D] & C2A,A,|[G,B,E]4|[G,E]E/F/[EG][EA]|
w:spend our lives in jeo-par-dy,* While o-thers live at ease. Shall we go dance the 
V:2
A,2B,2|C3G,|A,2B,B,|E,4|E2DC|
V:1
B/>=A/B/>c/B[DFB]&Dx3|(c/d/)edc&[EA][EA][EA][EA]|B/>=A/B/>c/ BB &[EG]/x/x2[DE]|
w:round, the round, the round? Shall we* go dance the round, the round, the round? And
V:2
B,3B,|A,CB,A,|E3G,|
V:1
AGFD & [CE]B,A,2|E>F (G/A/)B & G,3E|[CEA][B,EG][B,DF][A,B,D]|E/>D/E/>F/E2 & [G,B,]x3||
w:he that is a bul-ly boy,* Come pledge me on this ground, a ground, a ground.
w:|jol-ly|||
V:2
A,2B,2|C3G,|A,E,B,B,|E,4||

